icons/mail-download-fill.svg

<svg viewBox="0 0 24 24" fill="currentColor" xmlns="http://www.w3.org/2000/svg"><path d="M22 12.8027C21.1175 12.2922 20.0929 12 19 12C15.6863 12 13 14.6863 13 18C13 19.0929 13.2922 20.1175 13.8027 21H3C2.44772 21 2 20.5523 2 20V4C2 3.44772 2.44772 3 3 3H21C21.5523 3 22 3.44772 22 4V12.8027ZM12.0606 11.6829L5.64722 6.2377L4.35278 7.7623L12.0731 14.3171L19.6544 7.75616L18.3456 6.24384L12.0606 11.6829ZM20 18H23L19 22L15 18H18V14H20V18Z"/></svg>

<svg xmlns="http://www.w3.org/2000/svg" viewBox="0 0 24 24">
    <g>
        <path fill="none" d="M0 0h24v24H0z"/>
        <path d="M22 12.803A6 6 0 0 0 13.803 21H3a1 1 0 0 1-1-1V4a1 1 0 0 1 1-1h18a1 1 0 0 1 1 1v8.803zm-9.94-1.12L5.648 6.238 4.353 7.762l7.72 6.555 7.581-6.56-1.308-1.513-6.285 5.439zM20 18h3l-4 4-4-4h3v-4h2v4z"/>
    </g>
</svg>
